src/components/Icon/utils/svgsOptimized/align-left.svg

<?xml version="1.0" encoding="utf-8"?><svg width="24" height="24" xmlns="http://www.w3.org/2000/svg" viewBox="0 0 24 24"><path d="M6 7.5c0-.28.22-.5.5-.5s.5.22.5.5v9c0 .28-.22.5-.5.5s-.5-.22-.5-.5v-9Z"/><path fill-rule="evenodd" clip-rule="evenodd" d="M9 9h8c.55 0 1 .45 1 1v4c0 .55-.45 1-1 1H9c-.55 0-1-.45-1-1v-4c0-.55.45-1 1-1Zm.1 4.9h7.8v-3.8H9.1v3.8Z"/></svg>

<svg width="24" height="24" viewBox="0 0 24 24"  xmlns="http://www.w3.org/2000/svg">
<path d="M6 7.5C6 7.22 6.22 7 6.5 7C6.78 7 7 7.22 7 7.5V16.5C7 16.78 6.78 17 6.5 17C6.22 17 6 16.78 6 16.5V7.5Z" />
<path fill-rule="evenodd" clip-rule="evenodd" d="M9 9H17C17.55 9 18 9.45 18 10V14C18 14.55 17.55 15 17 15H9C8.45 15 8 14.55 8 14V10C8 9.45 8.45 9 9 9ZM9.1 13.9H16.9V10.1H9.1V13.9Z" />
</svg>
